material/.icons/material/plus-circle.svg

<svg xmlns="http://www.w3.org/2000/svg" viewBox="0 0 24 24"><path d="M17 13h-4v4h-2v-4H7v-2h4V7h2v4h4m-5-9A10 10 0 002 12a10 10 0 0010 10 10 10 0 0010-10A10 10 0 0012 2z"/></svg>

<?xml version="1.0" encoding="UTF-8"?><!DOCTYPE svg PUBLIC "-//W3C//DTD SVG 1.1//EN" "http://www.w3.org/Graphics/SVG/1.1/DTD/svg11.dtd"><svg xmlns="http://www.w3.org/2000/svg" xmlns:xlink="http://www.w3.org/1999/xlink" version="1.1" id="mdi-plus-circle" width="24" height="24" viewBox="0 0 24 24"><path d="M17,13H13V17H11V13H7V11H11V7H13V11H17M12,2A10,10 0 0,0 2,12A10,10 0 0,0 12,22A10,10 0 0,0 22,12A10,10 0 0,0 12,2Z" /></svg>
